X:347
T:
R:polska
S:Uppt. efter skolläraren S. P. Dalström i Hejde.
N:Variant av nr 346. Tonarten även olika med nr 346.
O:Gotland, Hejde
M:3/4
L:1/16
K:Bb
BcBA B2b2f2d2|B2FE DECD B,4|edcd e2gf edcB|B2BG ABcd c2F2|
BcBA B2b2f2d2|B2FE DECD B,4|edcB cdef gecB|BAGA [F4A4] [B,4D4B4]::
AcAF AFAc ecAF|BFDF .BFdB fdBF|fcAF =EFGA B3d|cBAG F2f2 Le4|
dfdB dBdf bfdB|dfdB dBdf bfdB|bfdB ABcd egec|dfAc B4 B,4:|

